X: 23571
T: Lighthouse Keeper's
R: waltz
M: 3/4
K: Amajor
z1cd|e>ce|dc~B|A>ce|f>ga|
e>cA|~f>ed|d<cA|~B2 c/ d/|
e>ce|d<cB|A>ce|
f>ga|e<cA|1 dcB|A3:|2 d<BG|A3||
z1ag|f>ed|c<ec|B>cd|
cag|~f>ed|c<a g/ f/|e>cA|B3|
|:z1ag|f>ga|e>ga|~f<ed|
c<eE|F<dc|B>AG|A3:|

